X: 111
T: Moll in the Wad
%R: jig
Z: 2018 John Chambers <jc:trillian.mit.edu>
B: Bland and Weller "Country Dances for the Year 1798" p.11 #1
M: 6/8
L: 1/8
K: Em
% - - - - - - - - - - - - - - - - - - - - - - - - -
c |\
BAB G2F | E2F G2A | B2c d2B | AFD D2c |\
BAB G2F | E2F G2A | B2c d2B | AFD D2 :|
|: c |\
BGB d2c | BGB d2c | BGB d2=f | ecA A2c |\
BGB d2c | BGB d2B | A2B c2B | AFD D2 :|
% - - - - - - - - - - - - - - - - - - - - - - - - -
%%begintext align
%% Cast off two Couple & up again .| change sides
%% and back again .|. Down the middle up again :|.
%% Allmand :|:
%%endtext
% - - - - - - - - - - - - - - - - - - - - - - - - -
